Breeze Round Dark/actions/24/edit-image-face-detect.svg

<svg xmlns="http://www.w3.org/2000/svg" viewBox="0 0 24 24">
  <defs id="defs3051">
    <style type="text/css" id="current-color-scheme">
      .ColorScheme-Text {
        color:#eff0f1;
      }
      </style>
  </defs><g transform="translate(1,1)">
 <path 
    style="fill:currentColor;fill-opacity:1;stroke:none" 
	d="m3 3v1 15h1 15v-1-15h-16m1 1h14v14h-14v-14m1 1v1 2h1v-2h2v-1h-3m9 0v1h2v2h1v-2-1h-3m-6 2c-.554 0-1 .446-1 1 0 .554.446 1 1 1 .554 0 1-.446 1-1 0-.554-.446-1-1-1m6 0c-.554 0-1 .446-1 1 0 .554.446 1 1 1 .554 0 1-.446 1-1 0-.554-.446-1-1-1m-6.871094 4.966797l-.964844.242187c.54051 2.178456 2.485695 3.791016 4.835938 3.791016 2.350243 0 4.295426-1.61256 4.835938-3.791016l-.964844-.242187c-.431884 1.743522-1.990365 3.033203-3.871094 3.033203-1.880729 0-3.43921-1.289681-3.871094-3.033203m-2.128906 2.033203v2 1h3v-1h-2v-2h-1m11 0v2h-2v1h3v-1-2h-1"
    class="ColorScheme-Text"
    />  
</g></svg>

<svg xmlns="http://www.w3.org/2000/svg" viewBox="0 0 24 24" width="24" height="24">
  <defs id="defs3051">
    <style type="text/css" id="current-color-scheme">.ColorScheme-Text {color:#fcfcfc;}</style>
  </defs>
  <g transform="translate(1,1)">
    <path style="fill:currentColor;fill-opacity:1;stroke:none" d="m 6,3 c 0,0 -3,0 -3,3 0,3 0,7 0,10 0,3 3,3 3,3 h 10 c 0,0 3,0 3,-3 0,-3 0,-7 0,-10 0,-3 -3,-3 -3,-3 z m 0,1 h 10 c 0,0 2,0 2,2 0,2 0,8 0,10 0,2 -2,2 -2,2 H 6 C 6,18 4,18 4,16 4,14 4,8 4,6 4,4 6,4 6,4 Z M 5,5 V 6 8 H 6 V 6 H 8 V 5 Z m 9,0 v 1 h 2 v 2 h 1 V 6 5 Z M 8,7 C 7.4460006,7 7,7.4460006 7,8 7,8.5539994 7.4460006,9 8,9 8.5539994,9 9,8.5539994 9,8 9,7.4460006 8.5539994,7 8,7 Z m 6,0 c -0.553999,0 -1,0.4460006 -1,1 0,0.5539994 0.446001,1 1,1 0.553999,0 1,-0.4460006 1,-1 C 15,7.4460006 14.553999,7 14,7 Z M 7.1289062,11.966797 6.1640625,12.208984 C 6.704572,14.387438 8.6497594,16 11,16 c 2.350241,0 4.295426,-1.612562 4.835938,-3.791016 L 14.871094,11.966797 C 14.43921,13.710317 12.880727,15 11,15 9.1192729,15 7.5607898,13.710317 7.1289062,11.966797 Z M 5,14 v 2 1 H 8 V 16 H 6 v -2 z m 11,0 v 2 h -2 v 1 h 3 v -1 -2 z" class="ColorScheme-Text"/>
  </g>
</svg>
